src/images/github_logo.svg

<svg width="22" height="21" viewBox="0 0 22 21" fill="none" xmlns="http://www.w3.org/2000/svg">
<path fill-rule="evenodd" clip-rule="evenodd" d="M10.9998 0.89473C5.41678 0.89473 0.894531 5.42318 0.894531 11C0.894531 15.4664 3.7915 19.2505 7.80507 20.5904C8.30754 20.6834 8.49364 20.3733 8.49364 20.1003C8.49364 19.8584 8.48744 19.2256 8.48123 18.382C5.67111 18.9899 5.07559 17.0297 5.07559 17.0297C4.61654 15.8634 3.95278 15.5533 3.95278 15.5533C3.03469 14.9267 4.02102 14.9391 4.02102 14.9391C5.03217 15.0136 5.57186 15.9813 5.57186 15.9813C6.47135 17.5259 7.93534 17.0793 8.51225 16.8187C8.6053 16.1674 8.86584 15.7207 9.15119 15.4664C6.90558 15.2121 4.54831 14.3436 4.54831 10.4727C4.54831 9.36851 4.93912 8.46902 5.59047 7.76184C5.48501 7.5075 5.13762 6.47775 5.68972 5.0882C5.68972 5.0882 6.53958 4.81525 8.46882 6.12416C9.27526 5.90084 10.1375 5.78918 10.9998 5.78297C11.8559 5.78918 12.7243 5.90084 13.5308 6.12416C15.46 4.81525 16.3099 5.0882 16.3099 5.0882C16.862 6.47775 16.5146 7.5075 16.4091 7.76184C17.0543 8.46902 17.4451 9.36851 17.4451 10.4727C17.4451 14.356 15.0816 15.2059 12.8298 15.4602C13.1896 15.7704 13.5184 16.3907 13.5184 17.3336C13.5184 18.6859 13.5059 19.7715 13.5059 20.1065C13.5059 20.3795 13.6858 20.6896 14.2007 20.5904C18.2143 19.2505 21.1051 15.4664 21.1051 11.0062C21.1051 5.42318 16.5828 0.89473 10.9998 0.89473Z" fill="#191717"/>
</svg>

<svg xmlns="http://www.w3.org/2000/svg" width="22" height="21" fill="none" xmlns:v="https://vecta.io/nano"><path fill-rule="evenodd" d="M11 .895A10.11 10.11 0 0 0 .895 11c0 4.466 2.897 8.25 6.91 9.6.502.093.69-.217.69-.5l-.012-1.718C5.67 19 5.076 17.03 5.076 17.03c-.46-1.166-1.123-1.476-1.123-1.476-.918-.627.068-.614.068-.614 1.01.075 1.55 1.042 1.55 1.042.9 1.545 2.363 1.098 2.94.837.093-.65.354-1.098.64-1.352-2.246-.254-4.603-1.123-4.603-4.994 0-1.104.39-2.004 1.042-2.71-.105-.254-.453-1.284.1-2.674 0 0 .85-.273 2.78 1.036.806-.223 1.67-.335 2.53-.34.856.006 1.724.118 2.53.34 1.93-1.31 2.78-1.036 2.78-1.036.552 1.4.205 2.42.1 2.674.645.707 1.036 1.607 1.036 2.71 0 3.883-2.363 4.733-4.615 4.988.36.3.69.93.69 1.873l-.012 2.773c0 .273.18.583.695.484 4.014-1.34 6.904-5.124 6.904-9.584A10.11 10.11 0 0 0 11 .895z" fill="#191717"/></svg>
